X:1
T:Mon p'tit garçon
%%score 1 2 3
L:1/8
M:3/4
K:C
V:1 treble-8 nm="Tenor" snm="T."
V:2 bass nm="Baritone" snm="Bar."
V:3 bass nm="Bass" snm="B."
V:1
 c2 c2 d2 | e6 | e2 f2 e2 | e4 d2 | d2 d2 d2 | d6 | d2 e2 d2 | d4 c2 | c2 c2 d2 | e6 | e2 f2 e2 | %11
 e4 d2 | d2 d2 d2 | d2 d4- | d2 e2 d2 | d4 c2 | c2 d2 c2 | A6 | c2 d2 c2 | A6 | e2 e2 e2 | e6 | %22
 e2 f2 e2 | e4 d2 | c2 c2 d2 | e6 | e2 f2 e2 | d6 | d2 e2 d2 | c4 d2 | d4 d2 | c6 |] %32
V:2
 E,2 A,2 B,2 | C6 | C2 D2 C2 | C4 B,2 | E,2 ^G,2 A,2 | B,6 | B,2 C2 B,2 | B,4 A,2 | E,2 A,2 B,2 | %9
w: Mon p'tit gar-|çon|c'est dans ta|tê- te|qu'ya des chan-|sons|qui font la|fe- te|et crois moi|
 C6 | C2 D2 C2 | C4 B,2 | E,2 ^G,2 A,2 | B,2 B,4- | B,2 C2 B,2 | B,4 A,2 | A,2 B,2 A,2 | F,6 | %18
w: de-|puis l'temps qu'je|trai- ne|j'en a vu|pou- sser|* des ren-|gain nes|de Ma- ca|o|
 A,2 B,2 A,2 | E,6 | C2 C2 C2 | C6 | C2 D2 C2 | C4 B,2 | E,2 A,2 B,2 | C6 | C2 D2 C2 | B,6 | %28
w: à la Bar-|bade|ça fait une|paye|que j'me ba|la de|et l'temps qui|passe|ça fait aux|vieux|
 B,2 C2 B,2 | A,4 G,2 | E,4 ^G,2 | A,6 |] %32
w: une bor- dée|d'rides au-|tour des|yeux|
V:3
 E,2 E,2 E,2 | A,,6 | A,,2 A,,2 A,,2 | E,4 E,2 | E,2 E,2 E,2 | E,6 | E,2 E,2 E,2 | A,,4 A,,2 | %8
 E,2 E,2 E,2 | A,,6 | A,,2 A,,2 A,,2 | E,4 E,2 | E,2 E,2 E,2 | E,2 E,4- | E,2 E,2 E,2 | A,,4 A,,2 | %16
 E,2 E,2 E,2 | C,6 | F,2 F,2 F,2 | C,6 | A,,2 A,,2 A,,2 | A,,6 | A,,2 A,,2 A,,2 | E,4 E,2 | %24
 E,2 E,2 E,2 | A,,6 | A,,2 A,,2 A,,2 | E,6 | E,2 E,2 E,2 | F,4 E,2 | B,,4 E,2 | [A,,E,]6 |] %32

